!!!OTL: Wenn ich hungrig und traurig bin (120), S. 278
!!!id: T0024
**kern
*clefG2
*k[]
*G:
{8g
=1
8g
8g
8e
8g
=2yy
8e
=3
8g
8a
8g
8e}
=4
{8g
8e
8g
8e
=5
8g
8a
8g
8e}
=6
{8a
8g
8e
8d
=7
8g
8a
4a}
=8
{8a
8g
8e
8e
=9
8a
8g
4ee}
==
*-
!!!minrhy: 8
!!!meters: 2/4 ]  ZZ[4
!!!cut: Wenn ich hungrig und traurig bin (120), S. 278
!!!reg: Luxemburg
!!!trd: Singendes Volk, Esch-Alzette 1937 posth.
!!!rhy1:   XXXX  XXXX
!!!rhy2: XXXX  XXXX
!!!key: T0024  08  G 2/4 ]  ZZ[4
!!!mod: VIERTONSKALA ]  AMBITUS[9
!!!kad: -6-626
!!!akz: 11_11_21_22_
!!!fot: 'a__a__b__c__
!!!for: 'a__a__aw_aw_
!!!fok: 'Sd_Sd_V__Va_
!! PHRAS[VOLLTAKTIG]
!!!fkt: Liebeslieder
!!!bem: StraPen, fff Witry, 13.2.1932, von Tante erlernt
!! THILL, Mathias:
!! PR[17] 2K[10] 2G[27] 3K[0] 3G[0] 4A[7] 4Ü[0] 5A[0] 6K[0] 6G[0]
!! 7K[0] 7G[0] 8A[0] MEHR[0] SI[44] ABS[41] SR[37] SP[7]
!! ST[12] 2k[5] 2g[22] 3k[5] 3g[0] 4d[7] 4ü[0] 5d[0] 6k[0] 6g[0]
!! 7k[0] 7g[0] 8d[0] mehr[0] si[39] dm[+5] sr[27] sp[12]
!! 1F[91] 2F[9] 3F[0] 4F[0] LF[0] 2P[0] 3P[0] 4P[0] TRI[0] DF[2] AB[44]
!! TF[0] U3K[0] U3[0] U4[0] U4Ü[0] U5[0] U6K[0] U6[0] U7K[0] U7[0]
!! N1[7] N2K[0] N2[5] N3K[0] N3[7] N4[7] N4Ü[0] N5[33] N6K[0] N6[21]
!!!n7k: 0] N7[7] O1[12] O2K[0] O2[0] O3K[0] O3[0] HÖ[0
